svgs/sharp-solid/hand-point-down.svg

<svg xmlns="http://www.w3.org/2000/svg" viewBox="0 0 384 512"><!--! Font Awesome Pro 6.6.0 by @fontawesome - https://fontawesome.com License - https://fontawesome.com/license (Commercial License) Copyright 2024 Fonticons, Inc. --><path d="M32 512l64 0 0-240-64 0 0 240zM224 352l64 0 0-128-64 0 0 128zm-32 32l0-112-64 0 0 112 64 0zm128-64l64 0 0-128-64 0 0 128zM0 149l0 91 192 0 0-48 0-32-96 0-16 0 0-32 16 0 112 0 16 0 0 16 0 48 64 0 0-32 96 0C384 71.6 312.4 0 224 0L162.3 0C119.8 0 79.1 16.9 49.1 46.9L37.5 58.5C13.5 82.5 0 115.1 0 149z"/></svg>

<svg xmlns="http://www.w3.org/2000/svg" viewBox="0 0 384 512"><!--! Font Awesome Pro 6.4.0 by @fontawesome - https://fontawesome.com License - https://fontawesome.com/license (Commercial License) Copyright 2023 Fonticons, Inc. --><path d="M32 512H96V272H32V512zM224 352h64V224H224V352zm-32 32V272H128V384h64zm128-64h64V192H320V320zM0 149v91H192V192 160H96 80V128H96 208h16v16 48h64V160h96C384 71.6 312.4 0 224 0H162.3C119.8 0 79.1 16.9 49.1 46.9L37.5 58.5C13.5 82.5 0 115.1 0 149z"/></svg>
